X:1
T:chilbin´up the montains
T:clibin´up the montains
%%score 1 2 3 4
L:1/8
Q:1/4=95
M:4/4
K:Ab
V:1 treble nm="Soprano" snm="S."
V:2 treble nm="Alto" snm="A."
V:3 treble-8 nm="Tenor" snm="T."
V:4 bass nm="Bajo" snm="B."
V:1
|:"Ab""^\n\n""^Swing" AAAA A2"Bb" B2 |"Ab" cB A6 | AA A2 c c2"Bb7" A |"Eb7" B8 | %4
w: Clim bin up the moun tain|chil * dren|Did nt come here for to|stay|
"Ab" A A2"Ab7" c2 c c2 |"Db" d d2 d d2 B=B |"Ab" cccc c2"Eb7" B2 |"Ab" A8 :| z8 |"Ab" A2 AA- A4 | %10
w: If I ne ver more|see you a gain gon na|meet you at the judg ment|day!||e gipt land *|
 A8 |"Eb7" G G2 G G4 |"Ab" A8 | A2 AA- A4 |"Bb7" A4"Eb7" G4 |"Ab" A2"Ab7" c2"F7" c4 | %16
w: hm|told to Pha roah|hm!|haeve nly throne *|peo ple|go Good Lord,|
"Bb7" c2 c2"Eb7" e c3 |"Ab" cA- A2- A4 |] %18
w: let my peo ple|go! * * *|
V:2
|: EEEE E2 F2 | AF E6 | EE E2 A A2 F | G8 | E E2 _G2 G G2 | F F2 F F2 AA | AAAA A2 G2 | E8 :| z8 | %9
w: Clim bin up the moun tain|chil * dren|Did nt come here for to|stay|If I ne ver more|see you a gain gon na|meet you at the judg ment|day!||
 E2 EE- E4 | E8 | E E2 E E4 | E8 | E2 EE- E4 | F4 E4 | E2 A2 =A4 | A2 A2 G G3 | AE F2 E4 |] %18
w: e gipt land *|hm|told to Pha roah|hm!|haeve nly throne *|peo ple|go Good Lord,|let my peo ple|go! * * *|
V:3
|: cccc c2 d2 | ed c6 | cc c2 e e2 c | d8 | c c2 e2 e e2 | d d2 d d2 =dd | eeee e2 d2 | c8 :| z8 | %9
w: Clim bin up the moun tain|chil * dren|Did nt come here for to|stay|If I ne ver more|see you a gain gon na|meet you at the judg ment|day!||
 c2 cc- c4 | c8 | d d2 d d4 | c8 | c2 cc- c4 | =d4 _d4 | c2 e2 e4 | =d2 d2 _d d3 | ec d2 c4 |] %18
w: e gipt land *|hm|told to Pha roah|hm!|haeve nly throne *|peo ple|go Good Lord,|let my peo ple|go! * * *|
V:4
|: A,A,A,A, A,2 A,2 | A,2 A,3 E,F,G, | A,A, A,2 A, A,2 F, | E,4- E,E,F,G, | A, A,2 A,2 A, A,2 | %5
w: Clim bin up the moun tain|chil dren O lord I|Did nt come here for to|stay * O bro ther|If I ne ver more|
 D, D,2 D, D,2 F,_F, | E,E,E,E, E,2 E,2 | A,,8 :| A,A,F, E,2 C,2 B,, | A,,2 A,,A,,- A,,2 E,2 | %10
w: see you a gain gon na|meet you at the judg ment|day!|mo ses went down in to|e gipt land * He|
 A,2 F,2 E,2 C,2 | B,,6 E,F, | A,2 F,2 E,E,C,=B,, | C,2 A,,A,,- A,,2 C,2 | B,,2 B,,2 E, E,3 | %15
w: told to Pha *|Roah that the|Good Lord sit tin on his|heav´ nly throne * said|let my peo ple|
 C,2 _G,2 F,4 | B,,2 B,,2 E, E,3 | A,,8 |] %18
w: go Good Lord,|ly my peo ple|go!|

